X:17
T:Bonnie Kate
R:Reel
O:Ireland, Scotland
B:Roche 1 n182
B:Joyce, P. W.; "Old Irish Folk Music and Songs", n126 as "Reel"
B:Kerr's Fourth p7
B:O'Neill's 1277
B:Ceol Rince 1 n174, n176
B:Fiddler's fakebook
S:My arrangement from various sources
Z:Transcription, arrangement, chords:Mike Long
M:C|
L:1/8
K:D
dB|\
"D"AFdA (3(Bcd) AF|"D"DFAF "A"E2EB|\
"D"AFAd "G"BGBd|"A"(3(cBA) Bc {e}dedB|
"D"Adcd "G"BdAF|"D"DFAF "A"E2EB|\
"D"AFAd "G"BGBd|[1 "A"(3(cBA) Bc "D"d2:|[2 "A"(3(cBA) Bc defg|]
|:"D"a2fd (3(fga) fd|"D"fagf "A"e2ef|\
"G"g2{a}gf gbag|"A"fedc "D"defg|
"D"a2fd (3(fga) fd|"D"fagf "A"edef|\
"G"g2 {a}gf gbag|[1 {g}"A"fedc "D"defg:|[2 {g}"A"fedc "D"d2|]
